X:1
T:Title
%%score { ( 1 4 ) | ( 2 3 ) }
L:1/8
Q:1/4=86
M:2/4
K:Bb
V:1 treble nm="Grand Piano"
V:4 treble 
V:2 bass 
V:3 bass 
V:1
 F2 F2 | F3 ^F | G2 F>E | [A,CE]2 .D2 | F2 ^F2 | G2 [Bd]>[Ac] | [Ac]A [CGB][=EG] | [A,F]4 | %8
w: from~Beethoven *||||||||
 AB [Ec][Dd] | [CFe]3 [EFc] | [Dd][Ec] [DFB][CGc] | [GB]2 .A2 | F2 F2 | F3 ^F | G2 FE | E2 .D2 | %16
w: ||||||||
 D2 F2 | B3 =B | cd [Ge]A | [DB]4 | [DF]2 [DF]2 |[M:5/8] [EG]2 [DF]3 |[M:2/4] F2 F2 | %23
w: |||||||
[M:5/8] B2 c3 |[M:2/4] c2 [Fd]2 | [EB]2 [EGc]2 | [FB-]4 | B2 z2 |[M:3/4] [B,DB]6 |] %29
w: ||||||
V:2
 [B,D]2 [A,CE]2 | [B,D]3 [B,D] | z2 D2 | z2 .B,2 | [B,D]2 [A,CD]2 | [G,B,D]2 [=E,C]2 | z F z B, | %7
 F,4 | E,D, C,B,, | A,,3 A,, | B,,C, D,=E, | z2[K:treble] .F2 | [B,D]2 [A,CE]2 | [B,D]3 [B,D] | %14
 z2 .[F,D]2 | [G,A,C]2 .B,2 | [G,B,]2 [_A,B,D]2 | [G,B,E]3 [F,G,F] | [E,G,][D,=B,] [C,C][F,E] | %19
 [B,,F,]4 | [B,,B,]2 [B,,B,]2 |[M:5/8] [E,B,]2 [B,,B,]3 |[M:2/4] [B,D]2 [A,C]2 | %23
[M:5/8] [G,B,D]2 [F,A,F]3 |[M:2/4] [F,A,F]2 [B,,B,]2 | [E,G,]2 C,2 | z2 _D2 | z2 A2 | %28
[M:3/4] B,,6 |] %29
V:3
 x4 | x4 | [E,B,E]2 [F,A,]->[F,A,C] | B,,4 | x4 | x4 | [F,C]2 C,2 | x4 | x4 | x4 | x4 | %11
 [F,C]4[K:treble] | x4 | x4 | [E,B,E]2 A,-[^F,A,C] | x4 | x4 | x4 | x4 | x4 | x4 |[M:5/8] x5 | %22
[M:2/4] x4 |[M:5/8] x5 |[M:2/4] x4 | x4 | F,4 | F,4 |[M:3/4] x6 |] %29
V:4
 x4 | x4 | x4 | x4 | x4 | x4 | x4 | x4 | [CF]2 F2 | x4 | F2 z2 | x4 | x4 | x4 | x4 | x4 | x4 | x4 | %18
 G2 z2 | x4 | x4 |[M:5/8] x5 |[M:2/4] x4 |[M:5/8] x5 |[M:2/4] x4 | x4 | D2 z2 | [CE]4 | %28
[M:3/4] x6 |] %29

